-----BEGIN PGP PUBLIC KEY BLOCK-----

mQINBGqdsvYBEADJ0HcGjrtpDmnwSanxKPtJQDoOepk7TzeAYXcUXFrY1lYqpXzx
noVbeLzNzxgl8Az/Zy9pOuiU9PCaIrzFC+HEU/FjwqfasWKx3gyO3q4Crxw0cZz9
QS5xPC9YyJpfydY5qNhvxBcnR/jdL/wHGQJs1Wgma4+qQ4QnYO7qO3/cgoMeoT2p
aCG2jcqr6lE/vvtIiWWZUVA2Fwqf8AJALu+opvvubdfjWmMVZ//nu16mqaKoJMJz
REc6JqO4UWVAL/nXupbt9Onrayf8Eus2s8ROMq7BpLRrIR/qTwHcjwcuYQQpiJS7
JAZysQ1uafaN0Cgffyq0lQZPTrYMjDLukTTWGvuiDBNgT+ybQ+g30wZHYB5ME+uy
XWzsd+34YxT2PXm8zE8HDpK0drYE1pIueBcKpfdKUQyXL1iR0SY7OBpBq6APDlZY
7UCahfeQIiyeflG7HACeAikVLt0KioBdAM3Mb71T8QfsB5E6Xub63U+E2LNPuBiQ
zadOmu21GefpwxVgfIa1tEZaWqYkipQJhPpg7QMgwKeNNLbkIxFt8lESUb74rFMp
W7TwOpMOcCe21DR7XAle4epJOoMoupmWheEwextgJWs7uLhngopQto8PJYRC87Td
6QEmVs/uv8nLvWLvbpFtrBLYII/h65lNKjgrpK4Gdn4/nLtnO9d2JmQ0GQARAQAB
tBtKb3NsZWtlIDxqb3NsZWtlQGdtYWlsLmNvbT6JAm0EEwEIAFcWIQRembs6qv2H
CU43jmHq31w4FlYkkAUCap2y9hsUgAAAAAAEAA5tYW51MiwyLjUrMS4xMiwwLDMC
GwMFCwkIBwICIgIGFQoJCAsCBBYCAwECHgcCF4AACgkQ6t9cOBZWJJBu/Q/+LjDm
lLx3BEBagj6i5QbcNHFfmuuTHMdt5zr0dJsyF8qzpm7404scoE0rn5HzAklOoc2+
t3ejWRE8zYyuFHp3ZhrUiZMf6YrcT6k43m1vOj/KAuauxhuPM30RNKjrKjWsbdlS
ZXOd7XixmLcFkrc1rc/J1R6i28N99R5QokAj0/XP9b5SnU0TTDHeGpVqKHtM977Q
fYCg2KUwF7hTqx/7qbZa1SetMG4XVBBj3dJorUcYiKylnlmqT9rkSL/BpZabYwbH
7CLdmnPCTkAGw2Y9a1TI+4ROYmwNSqN6+IlWnJgViD0dgvNPdXgQJT9dft2GHWlx
0LR5zFnB7zUDTtq3SK9RyBBXcOXUTPtXgjiRCOP5HU6bFgiaGM3VvV82E77BMux6
DzVOziws58gj+HVVjMuJocP52rYLX9zwvT+3XGDHQli6CgawsOlsbEtGyL/CxjVi
RYDxZIdYiYU2cbOPMrVssQD9pzcqASM56466VwqLDsl0HdGRNNhtHGxp1KQdfl9C
MtYAcNhT8tA+mthw+DTunX0SkLpixi86jYJrEPfxHMbzMSM5ZsSlpsLfmkI2wTrm
lt3qSiKbzmZTgiY0KpJiJlEH7t480mfxOXf4+bruB0UE9SNAa+F2ZMxnNjR0RpFI
2tIHdZmtBB1nWBEXUWMTf//suQUJAoHqaKSxyvu5Ag0Eap2y9gEQALqH5wBWcOx0
BjZgy4jGp3/Czy+75OxokxDUjfA0Bs61ewC/5W2V3MnF6m/qjz1h+bH6csifKQA5
Lg8dvZXuON2pEzcWhiNtI9sQLUM1W0cEcJgIiz/eIlUuJ2P6dMyGRoJTUwwpmhNw
igRLrhxXSkdTCC4JWEv8o3AEZjyRIsgEDFPnP5NsmM9Zr0w95gB1CGqUgj+W8A5l
AkDc+gFf8SdhcsFL6BA4TaBb4bNW87/5Pxt+gNCgN5Pc25FmbSBeEFHM8fUztdJP
ExcV+fjgxxFa9o2exhtAx4gk5E17/mQORS9j6MYDWgonsTIxbCpcVedXP6rA8pAt
/MlMMeUkmfyS18cqp+6/N/1062xoke+RTdpwrUcXjc8vBouFuywdeZe500PNDCfN
MbhgoE+i8pWTV1pXth9qmAMsuaVPAP4d/AL3cAQ2mgD1SlSVOnBa5nouewxLrBNX
oP5VpLTxIn9E/mAwYz0oUVxnSjd/e34gKe+fIH6bKF+q91AfxDyCfQPxvH2kb4g4
wEuvGRBHbyFG0BV0z1lRisIen5pTQ8OB3q3yTjUgDBZWWe3BUVahXqGkx/ESL4+u
c3G4dITy+Q8teW6M1qcOKvNkmU6fxHKGvkRSsiUPgZCFISOm6AZY2Z+im+G2S8l8
3GGaegGCIsV2eNu0J7cfCvd1lpbadWqxABEBAAGJAlIEGAEIADwWIQRembs6qv2H
CU43jmHq31w4FlYkkAUCap2y9hsUgAAAAAAEAA5tYW51MiwyLjUrMS4xMiwwLDMC
GwwACgkQ6t9cOBZWJJA2GA/+I1ibpGcTNS7YmFleq0pnj5kBcbtfnNqDbek9z/fY
PWnysjjGl/lfTA7wykYxgCQPQO9oHhPguv0LOTKxPmeFCfAFTp61LaYeDONJjVdd
m4dWlfi31C8S+BQf/dDV6UCA/dadOtEJmQRlMWco/V2hyV3fVQWUm/SmUAvHZJmf
msSpI8IFtOKO4rlf++GyGfQa9yxrWKgq8aNfY0Xolw8QQHiCM0zt4DsB26TXN2/r
D79n2ChqN4s2PvaKMMyL0BZy8TRdBVmK2Hlm80VLf928WBvib65OfWfXPAGj3DCe
6oCYGbpFlIcoY/0m3z1Syed2dZi2QzgpnBfZ6o1KFZ2/BJdNMHypZRjWLHKE3Qmo
NoGbv0HxyRmHCg2Uso+wzKywvFWLzQu5Sckk5ZjpfGrKO72G3zOgyt0Rvjs7pvLa
PrI9jSPxO1oXZJU94RScVKXUQ1duMbIeO+RvmpZGLayKG7As2xKn0hVJqZvOygDg
K1H9QFhEkG+/bH8FHfaAqt7a+4BOLLndLUVXE79b8kgNQdM1tCK1Q8cb3oap3xsg
xl4/GVIOu9fs9y/Yhu+ogEUALlCpc2krU6mTlAx0qTazP2w8uTyRtjQg8Hq2Ir/A
PQHTPhsZlbfjbrAiEU2Qxu79eb3EN411OtZDPvuExfUIoXNV69tAJzwxVjHC1y6U
HAA=
=bdOn
-----END PGP PUBLIC KEY BLOCK-----
